X: 117206
T: GLENQUEY
Q: "Reel."
R: Reel.
%R: reel
B: James Kerr "Merry Melodies" v.1 p.17 s.2 #6
Z: 2017 John Chambers <jc:trillian.mit.edu>
M: C
L: 1/8
K: D
uF |\
D/D/D (AF) ADDF | D/D/D (AF) BEEF |\
D/D/D (AB) defe | dBAF AD D :|\
uf |\
defg abaf | gefd eBBe |
defg abaf | geag fdde |\
defg abaf | gefd eBBe |\
dfeg afge | fbef dD D |]\
"_Fine."D4 ||

% %newpage
%%sep 1 1 500
%%sep 1 1 500
%%center Set. 29th

%%sep 1 1 500
%%sep 1 1 500

